symbols/web/no_meals/materialsymbolsrounded/no_meals_wght300gradN25_24px.svg

<svg xmlns="http://www.w3.org/2000/svg" height="24" width="24"><path d="m20.25 22.225-2.35-2.35h.275V20.9q0 .275-.2.488-.2.212-.5.212-.275 0-.487-.212-.213-.213-.213-.488v-2.125L2.025 4Q1.8 3.8 1.8 3.512q0-.287.225-.512.225-.225.5-.225t.5.225L21.25 21.225q.2.225.2.5t-.2.5q-.225.225-.5.225t-.5-.225Zm-2.075-6.75-1.4-1.425v-.375h-.4l-2.25-2.25V7.05q0-1.8 1.15-3.15 1.15-1.35 2.9-1.475Zm-6.6-6.6-1.4-1.4V3.1q0-.3.2-.5t.5-.2q.3 0 .5.2t.2.5ZM8.75 6.05l-1.4-1.4V3.1q0-.3.2-.5t.5-.2q.3 0 .5.2t.2.5ZM5.9 3.2l-.8-.8q.325 0 .563.237.237.238.237.563Zm1.45 17.675v-8.25q-1.2-.25-2.025-1.2T4.5 9.15V4.5l1.4 1.4v3.25h1.45V7.325l1.4 1.4v.425h.425l1.85 1.875q-.375.6-.963 1.025-.587.425-1.312.575v8.25q0 .3-.2.513-.2.212-.5.212t-.5-.212q-.2-.213-.2-.513Z"/></svg>

<svg xmlns="http://www.w3.org/2000/svg" height="24" width="24"><path d="M20.75 22.725 17.9 19.875H18.175V20.9Q18.175 21.175 17.975 21.388Q17.775 21.6 17.475 21.6Q17.2 21.6 16.988 21.388Q16.775 21.175 16.775 20.9V18.775L10.025 12.025Q9.775 12.25 9.45 12.412Q9.125 12.575 8.75 12.625V20.875Q8.75 21.175 8.55 21.388Q8.35 21.6 8.05 21.6Q7.75 21.6 7.55 21.388Q7.35 21.175 7.35 20.875V12.625Q6.15 12.375 5.325 11.425Q4.5 10.475 4.5 9.15V6.5L1.525 3.5L2.525 2.5L21.75 21.725ZM18.175 15.475 16.775 14.05V13.675H16.375L14.125 11.425V7.05Q14.125 5.25 15.275 3.9Q16.425 2.55 18.175 2.425ZM11.575 8.875 10.175 7.475V3.1Q10.175 2.8 10.375 2.6Q10.575 2.4 10.875 2.4Q11.175 2.4 11.375 2.6Q11.575 2.8 11.575 3.1ZM5.9 9.15H6.9L6.675 8.7L5.9 7.925ZM8.75 6.05 7.35 4.65V3.1Q7.35 2.8 7.55 2.6Q7.75 2.4 8.05 2.4Q8.35 2.4 8.55 2.6Q8.75 2.8 8.75 3.1ZM5.9 3.2 5.1 2.4Q5.425 2.4 5.663 2.637Q5.9 2.875 5.9 3.2Z"/></svg>
